X:1
T:Title
%%score { ( 1 3 ) | 2 }
L:1/8
M:4/4
K:C
V:1 treble nm="Grand Piano"
V:3 treble 
V:2 bass 
V:1
 z4 z2[Q:1/4=108] [EG]2 | [Ec][Ec] [Ec]2 [GB]2 [FA]2 | [EG]6 [FA][EG] | E2 D2 C2 F2 | E6 E2 | %5
 [B,D]2 [CE]2 [DF]2 [B,D]2 | [G,CE]2 [G,DF]2 [CEG]2 [EAc]2 | [DGB]2 [C^FA]2 G2 F2 | %8
[M:5/8] G-G- G3 |[M:3/8] GGG |[M:17/16] d/-d/-d/-d/-d-<dG3/2GGG | %11
 [Ge]/-[Ge]/-[Ge]/-[Ge]/-[Ge]-<[Ge][Ec]3/2[EG][EG][EG] |[M:4/4] [Gf]2 [Ge]2 [Ad][Ad][Ac][Ac] | %13
[M:17/16] d/-d/-d/-d/-d/-d/-d/-d-<d z/ z/ z/ z/ z | [Ge]/-[Ge]/-[Ge]/-[Ge]/-[Ge]-<[Ge][Ec]3/2cdc | %15
 [FAc]/-[FAc]/-[FAc]/-[FAc]/-[FAc]-<[FAc][CFA]3/2[CAc][CGB]A | %16
[M:4/4] G2 G2 GG[FG][Fd][Q:1/4=106][Q:1/4=105][Q:1/4=103][Q:1/4=102][Q:1/4=100][Q:1/4=98][Q:1/4=97][Q:1/4=95][Q:1/4=94][Q:1/4=92][Q:1/4=91][Q:1/4=89][Q:1/4=87] | %17
[M:3/4] [Ec]6[Q:1/4=86][Q:1/4=84][Q:1/4=83] |] %18
V:2
 z4 z2 [C,C]2 | [C,G,][C,G,] [C,G,]2 [C,A,]2 [C,B,]2 | [C,C]6 [C,C][C,C] | %3
 [C,G,C]2 [C,F,C]2 [C,E,]2 [C,A,C]2 | [C,G,C]6 [C,G,C]2 | [G,,G,]2 [G,,G,]2 [G,,G,]2 [G,,G,]2 | %6
 C,2 C,2 C,2 A,,2 | D,2 D,2 [D,B,D]2 [D,A,D]2 |[M:5/8] [G,B,D]-[G,B,D]- [G,B,D]3 |[M:3/8] z3 | %10
[M:17/16][K:treble] [G,B,F]/-[G,B,F]/-[G,B,F]/-[G,B,F]/-[G,B,F]-<[G,B,F][G,B,F]3/2 z/ z/ z/ z/ z | %11
 [C,C]/-[C,C]/-[C,C]/-[C,C]/-[C,C]-<[C,C][C,G,]3/2[C,C][C,C][C,C] | %12
[M:4/4] [D,B,]2 [E,C]2 [F,C][F,C][^F,D][F,D] | %13
[M:17/16][K:treble] [G,B,G]-<[G,B,G][A,C][A,C][B,F]3/2 z/ z/ z/ z/ z | %14
 [C,C]/-[C,C]/-[C,C]/-[C,C]/-[C,C]-<[C,C][C,G,]3/2[K:treble]_BBB | %15
 F,/-F,/-F,/-F,/-F,-<F,F,3/2F,F,[F,CF] |[M:4/4] [G,CE]2 [F,B,D]2 [E,G,C][E,G,C][D,B,][G,B,] | %17
[M:3/4] [C,C]6 |] %18
V:3
 x8 | x8 | x8 | x8 | x8 | x8 | x8 | x8 |[M:5/8] x5 |[M:3/8] x3 |[M:17/16] x17/2 | x17/2 | %12
[M:4/4] x8 |[M:17/16] z/ z/ z ^FFG3/2GEG | x17/2 | x17/2 |[M:4/4] x8 |[M:3/4] x6 |] %18

